logos/basecamp-icon.svg

<?xml version="1.0" encoding="UTF-8"?>
<svg width="256px" height="223px" viewBox="0 0 256 223" version="1.1" xmlns="http://www.w3.org/2000/svg" preserveAspectRatio="xMidYMid">
    <title>Basecamp</title>
    <g>
        <path d="M134.919504,7.10542736e-15 C180.554985,7.10542736e-15 216.23384,34.8650896 236.859798,83.6045401 L238.7785,88.2876691 C242.52423,97.7351372 245.717954,107.661807 248.324452,117.922617 L249.578602,123.080196 C252.791639,136.90441 254.950285,151.279672 255.971057,165.862134 C256.135759,168.215019 255.59482,170.563549 254.417436,172.607311 C235.246585,205.885015 192.59723,221.954232 138.203845,222.536491 L135.11251,222.55292 C93.4479254,223.231376 53.5584962,205.708816 25.8722783,174.566059 C22.9616755,171.292077 22.0939288,166.679782 23.615724,162.571898 L25.348947,158.137457 L26.8010593,154.610953 C27.0583843,153.998014 27.3232527,153.373071 27.5954998,152.737009 C30.7119157,145.455997 34.1670063,138.167846 37.8921912,131.309293 C47.8744838,112.930587 57.7524306,100.747222 69.527267,96.716055 C72.0070152,95.8671024 74.5517814,95.4081949 77.2124662,95.3904288 C87.7173653,95.3904288 94.5034475,100.102102 105.384886,111.423138 L111.612265,117.966421 L113.763788,120.108248 L115.115027,121.310675 L116.147335,122.158151 L116.570031,121.724131 C118.053392,120.144339 119.784736,117.966198 121.685061,115.281636 L122.648939,113.897579 C124.915549,110.59145 127.331665,106.717563 129.842366,102.399045 C133.110366,96.7779389 136.361956,90.7152502 139.433994,84.6475467 L141.678852,80.1440905 L143.375271,76.6275781 C146.154013,70.699596 153.212207,68.1466322 159.140189,70.9253738 C164.738839,73.5497409 167.327056,79.9912739 165.256485,85.6927573 L164.691073,87.011413 L162.216492,92.1024823 L160.586055,95.3566955 C157.321943,101.803771 153.861506,108.255862 150.338716,114.315217 C147.552178,119.108187 144.833617,123.467001 142.203308,127.303629 C133.402924,140.14007 126.5316,146.909604 117.05118,146.909604 C109.917543,146.909604 106.054424,145.384587 99.391355,139.182026 L97.3023652,137.177779 L95.0089557,134.873965 L91.1058792,130.815176 L88.523383,128.096512 L86.4225766,125.957043 C86.0918849,125.627751 85.7707734,125.311884 85.45903,125.009115 L83.6992931,123.347075 C83.1490568,122.843714 82.6345979,122.390135 82.1542213,121.983725 L80.8136431,120.903392 C79.3649673,119.801999 78.313032,119.246427 77.5851525,119.124662 L77.3278431,119.100991 L77.2064355,119.146523 C74.3864372,120.111962 70.1637542,124.520677 65.4827951,131.424959 L63.5882086,134.317522 C62.6309333,135.828106 61.6603637,137.433458 60.6840552,139.125996 L58.7260249,142.625075 C56.0558664,147.541186 53.5059012,152.776808 51.1350682,158.079989 L48.546669,164.054851 L49.4058067,164.907393 C71.4289728,186.414072 101.001935,198.635343 132.089369,198.858755 L134.919504,198.845938 C180.340942,198.845938 214.948998,187.246192 230.911244,165.329785 L232.020286,163.741982 L231.895082,162.247603 C230.273917,144.513419 226.777001,127.280662 221.685571,111.337654 L220.110588,106.594232 C203.888027,59.5627072 173.567956,24.8484161 136.743786,23.7360751 L134.919504,23.7085541 C83.7253702,23.7085541 49.306586,58.4476316 26.2973337,118.192545 L24.1060694,124.052046 C23.7467349,125.041531 23.3903236,126.03744 23.0368128,127.039731 C20.85917,133.213891 14.0886963,136.453708 7.91453656,134.276065 C1.74037683,132.098422 -1.49944025,125.327948 0.678202571,119.153789 L1.7534724,116.146723 L3.95899821,110.228117 C30.1206867,41.9270249 71.419053,7.10542736e-15 134.919504,7.10542736e-15 Z" fill="#1D2D35"></path>
    </g>
</svg>

<?xml version="1.0" encoding="UTF-8"?>
<svg width="256" height="223" version="1.1" xmlns="http://www.w3.org/2000/svg" preserveAspectRatio="xMidYMid">
	<path d="M134.92 0c45.635 0 81.314 34.865 101.94 83.605l1.918 4.683c3.746 9.447 6.94 19.374 9.546 29.635l1.255 5.157c3.213 13.824 5.371 28.2 6.392 42.782a11.854 11.854 0 0 1-1.554 6.745c-19.17 33.278-61.82 49.347-116.213 49.93l-3.091.016a143.05 143.05 0 0 1-109.24-47.987 11.854 11.854 0 0 1-2.257-11.994l1.733-4.435 1.452-3.526c.257-.613.522-1.238.794-1.874 3.117-7.281 6.572-14.57 10.297-21.428 9.982-18.378 19.86-30.562 31.635-34.593a24.014 24.014 0 0 1 7.685-1.326c10.505 0 17.291 4.712 28.173 16.033l6.227 6.543 2.152 2.142 1.351 1.203 1.032.847.423-.434c1.483-1.58 3.215-3.758 5.115-6.442l.964-1.384c2.267-3.307 4.683-7.18 7.193-11.499 3.268-5.621 6.52-11.684 9.592-17.751l2.245-4.504 1.696-3.516c2.779-5.928 9.837-8.481 15.765-5.703 5.599 2.625 8.187 9.066 6.116 14.768l-.565 1.318-2.475 5.091-1.63 3.255c-3.264 6.447-6.724 12.899-10.247 18.958-2.787 4.793-5.505 9.152-8.136 12.989-8.8 12.836-15.671 19.606-25.152 19.606-7.133 0-10.997-1.525-17.66-7.728l-2.089-2.004-2.293-2.304-3.903-4.059-2.583-2.718-2.1-2.14c-.331-.33-.652-.645-.964-.948l-1.76-1.662a53.368 53.368 0 0 0-1.545-1.363l-1.34-1.08c-1.449-1.102-2.501-1.658-3.229-1.78l-.257-.023-.122.046c-2.82.965-7.042 5.374-11.723 12.278l-1.895 2.893a135.19 135.19 0 0 0-2.904 4.808l-1.958 3.5c-2.67 4.915-5.22 10.15-7.59 15.454l-2.59 5.975.86.852c22.023 21.507 51.596 33.728 82.683 33.952l2.83-.013c45.422 0 80.03-11.6 95.992-33.516l1.11-1.588-.126-1.494c-1.621-17.735-5.118-34.967-10.21-50.91l-1.574-4.744c-16.223-47.031-46.543-81.746-83.367-82.858l-1.824-.027c-51.195 0-85.613 34.739-108.623 94.484l-2.19 5.859c-.36.99-.717 1.985-1.07 2.988-2.178 6.174-8.948 9.414-15.122 7.236-6.175-2.178-9.414-8.948-7.237-15.122l1.075-3.007 2.206-5.919C30.121 41.927 71.419 0 134.919 0Z" fill="#1D2D35"/>
</svg>
